svgs/thin/object-union.svg

<svg xmlns="http://www.w3.org/2000/svg" viewBox="0 0 512 512"><!--! Font Awesome Pro 6.4.2 by @fontawesome - https://fontawesome.com License - https://fontawesome.com/license (Commercial License) Copyright 2023 Fonticons, Inc. --><path d="M160 336c8.8 0 16 7.2 16 16v96c0 26.5 21.5 48 48 48H448c26.5 0 48-21.5 48-48V224c0-26.5-21.5-48-48-48H352c-8.8 0-16-7.2-16-16V64c0-26.5-21.5-48-48-48H64C37.5 16 16 37.5 16 64V288c0 26.5 21.5 48 48 48h96zm-16 16H64c-35.3 0-64-28.7-64-64V64C0 28.7 28.7 0 64 0H288c35.3 0 64 28.7 64 64v80 16h16 80c35.3 0 64 28.7 64 64V448c0 35.3-28.7 64-64 64H224c-35.3 0-64-28.7-64-64V368 352H144z"/></svg>

<svg xmlns="http://www.w3.org/2000/svg" viewBox="0 0 512 512"><!--! Font Awesome Pro 6.1.1 by @fontawesome - https://fontawesome.com License - https://fontawesome.com/license (Commercial License) Copyright 2022 Fonticons, Inc. --><path d="M64 352C28.65 352 0 323.3 0 288V64C0 28.65 28.65 0 64 0H288C323.3 0 352 28.65 352 64V160H448C483.3 160 512 188.7 512 224V448C512 483.3 483.3 512 448 512H224C188.7 512 160 483.3 160 448V352H64zM176 336V448C176 474.5 197.5 496 224 496H448C474.5 496 496 474.5 496 448V224C496 197.5 474.5 176 448 176H336V64C336 37.49 314.5 16 288 16H64C37.49 16 16 37.49 16 64V288C16 314.5 37.49 336 64 336H176z"/></svg>
